!!!COM: Bach, Johann Sebastian
!!!CDT: 1685///-1750///
!!!CNT@EN: German
!!!OTL: Gigue from Cello Suite No. 1 in G Major, BWV 1007
!!!OPR: Cello Suite No. 1 in G Major, BWV 1007
!!!OMD: Gigue
!!!OMV: 7
!!!ODT: 1720///
!!!SCT: BWV 1007
!!!SCA: Thematisch-systematisches Verzeichnis der musikalischen Werke Johann Sebastian Bach: Bach-Werke-Verzeichnis (Schmieder)
**kern
*Icello
*>[A,A,B,B]
*>norep[A,B]
*>A
*clefF4
*k[f#]
*M6/8
*MM144
8D\
=1
8G\L
8D\
8E\J
8E\L
8C\
8D\J
=2
8D\L
8G\
8D\J
8BB/L
8GG/
8D/J
=3
(16G\LL
16A\J
8B\
8A\J)
(16A\LL
16B\J
8c\
8B\J)
=4
(GGq/
[4.D\) 4.B\
4D\] 4A\
8A\
=5
8B\L
(8F#\
8G\J)
(8G\L
8E\)
8G\J
=6
8A\L
(8E\
8F#\J)
(8F#\L
8D\)
8F#\J
=7
8G\L
8B\
8G\J
8E/L
8BB/
8D/J
=8
(8C#\L
8E\
8A\J)
4AA/
8E\
=9
(8Fn\L
8E\
8G\J)
(8G\L
8F\
8A\J)
=10
(8A\L
8G\
8B-\J)
(8B-\L
8A\
8G\J)
=11
(8Fn\L
8E\
8D\J)
(8AA/L
8D/
8C#/J)
=12
8D/L
(8AA/
8FF#/J)
4DD/
=:|!|:
*>B
8A\
=13
8A\L
8F#\
8G\J
8G\L
8E\
8F#\J
=14
(16F#\LL
16G\J
8A\)
8F#\J
8D\L
(8c\
8B\J)
=15
8B\L
8G\
8A\J
8A\L
8F#\
8G\J
=16
(16G\LL
16A\J
8B\)
8G\J
8E\L
(8d\
8c\J)
=17
8A\L
(8d\
8c\J)
8D\L
(8c\
8B\J)
=18
8G\L
(8c\
8B\J)
8C\L
(8B\
8A\J)
=19
(8G\L
8F#\
8E\J)
(8BB/L
8E/
8D#/J)
=20
8E/L
(8BB/
8GG/J)
4EE/
8G\
=21
(8A\L
8F#\
8G\J)
(16c#\LL
16d\J
8e\
8F#\J)
=22
(8G\L
8E\
8Fn\J)
(16B\LL
16c\J
8d\
8E\J)
=23
(8Fn\L
8D\
8E\J)
(16A\LL
16B\J
8c\
8A\J)
=24
(16F#\LL
16G\J
8A\
8F#\J)
4D\
8A\
=25
(8B-\L
8A\
8c\J)
(8c\L
8B-\
8d\J)
=26
(8d\L
8c\
8e-\J
8e-\L
8d\
8c\J)
=27
(8B-\L
8A\
8G\J)
(8D\L
8G\)
8F#\J
=28
8G/L
(16BBn/L
16C/J
8D/J)
(8GG/L
8BB/)
8D/J
=29
8G\L
(16E\L
16Fn\J
8G\J)
(8BB/L
8C/)
8E/J
=30
8A\L
(16F#\L
16G\J
8A\J)
(8C#\L
8D\)
8F#\J
=31
8B\L
(16G\L
16A\J
8B\J)
(8D#\L
8E\)
8c\J
=32
(8E\L
8F#\)
8d\J
(8F#\L
8G\)
8e\J
=33
8D\L
(16E\L
16F#\
16G\
16A\JJ
8B\L)
8G\
8F#\J
=34
8G\L
(8D\
8BB\J)
4GG/
==:|!
*-
!!!ENC: Craig Stuart Sapp
!!!END: 2004/12/01/
